X:1
T:Bourree "Le merle chante" ("Die Amsel singt")
C:Ambros Schiffermueller,  13. 4. 2001
R:bourree a trois temps
F:http://simonwascher.info
Z:abc transcription Helmut Eberl
M:3/8
L:1/16
K:C
G2 |\
c2 cdef | g2 egfe | f2 dfed | e2 c2 G2 |\
c2 cdef | g2 egfe | f2 dfed | c4 :|  
|: G2 |\
.c2  .B2 .c2 | .d2 .d2 de | f2 dfed | e2 c2 G2 |\
.c2 .B2 .c2 | .d2 .d2 de | f2 dfed | c4 :|
